X: 32
T: Fan på Gräsö
S: efter [[!Nisse Nordström]] och [[!Ceylon Wallin]]
O: Uppland
Z: Nils L
R: [[!Polska]] ([[!Bondpolska]])
B: Spela nyckelharpa 3, nr 32
M: 3/4
L: 1/8
K: C
c2 (c>>B) A>B | c2 (c>>d) e>e | c2 (c>>B) A>B | c2 cB/A/ GA/B/ |
c2 (c>>B) A>B | (c>B) (cd) e>a | (ag) (g<G) B>d | (d<c) c2 z2 ::
e2 (eG) c>e | (e<d) (d>^c) de | f2 (f>e) fa | (a>g) (g/c'/)g/e/ g>g |
e2 (eG) c>e | (e<d) (d>^c) de | (f>e) (f<a) g>B | dB/d/ c2 z2 :|

